src/images/legende/malnutrition.svg

<?xml version="1.0" encoding="iso-8859-1"?>
<!-- Generator: Adobe Illustrator 19.0.0, SVG Export Plug-In . SVG Version: 6.00 Build 0)  -->
<svg version="1.1" id="Capa_1" xmlns="http://www.w3.org/2000/svg" xmlns:xlink="http://www.w3.org/1999/xlink" x="0px" y="0px"
	 viewBox="0 0 480 480" style="enable-background:new 0 0 480 480;" xml:space="preserve">
<circle style="fill:#F8CF26;" cx="240" cy="240" r="232"/>
<circle style="fill:#FF931E;" cx="240" cy="240" r="152"/>
<path d="M342.552,205.776c2.581-14.671,1.674-29.744-2.648-44l-5.136-16.904c-6.524-19.202-27.379-29.479-46.581-22.955
	c-10.802,3.67-19.285,12.153-22.955,22.955l-5.136,16.904c-4.322,14.256-5.229,29.329-2.648,44
	c2.354,12.352,10.196,22.964,21.312,28.84L273.008,363.2c-0.77,7.177,1.558,14.342,6.4,19.696
	c10.413,11.39,28.089,12.182,39.479,1.769c0.616-0.563,1.206-1.153,1.769-1.769c4.734-5.202,7.058-12.157,6.4-19.16L321.272,234.6
	C332.373,228.721,340.202,218.116,342.552,205.776L342.552,205.776z M326.792,202.992c-1.732,8.874-8.056,16.155-16.6,19.112
	c-3.243,1.219-5.332,4.387-5.176,7.848L311.096,365c0.28,2.649-0.594,5.29-2.4,7.248c-4.817,4.769-12.575,4.769-17.392,0
	c-1.896-2.116-2.757-4.964-2.352-7.776l6.032-134.52c0.156-3.461-1.933-6.629-5.176-7.848c-8.544-2.957-14.868-10.238-16.6-19.112
	c-2.14-12.18-1.386-24.693,2.2-36.528l5.136-16.912c3.974-10.745,15.906-16.234,26.652-12.26c5.681,2.101,10.159,6.58,12.26,12.26
	l5.136,16.912C328.174,178.3,328.928,190.812,326.792,202.992L326.792,202.992z"/>
<path d="M221.656,205.656c1.5-1.5,2.344-3.534,2.344-5.656v-72c0-4.418-3.582-8-8-8s-8,3.582-8,8v68.688l-21.656,21.656
	c-1.602,1.597-2.454,3.797-2.344,6.056l7,140c0.167,3.019-0.929,5.972-3.024,8.152c-4.379,4.418-11.511,4.45-15.93,0.07
	c-0.024-0.023-0.047-0.047-0.07-0.07c-2.095-2.18-3.191-5.133-3.024-8.152l7.048-140c0.112-2.258-0.737-4.458-2.336-6.056
	L152,196.688V128c0-4.418-3.582-8-8-8s-8,3.582-8,8v72c0,2.122,0.844,4.156,2.344,5.656l21.488,21.496l-6.824,136.472
	c-0.726,14.907,10.77,27.581,25.677,28.307s27.581-10.77,28.307-25.677c0.043-0.876,0.043-1.753,0-2.629l-6.824-136.472
	L221.656,205.656z"/>
<path d="M168,200c4.418,0,8-3.582,8-8v-64c0-4.418-3.582-8-8-8s-8,3.582-8,8v64C160,196.418,163.582,200,168,200z"/>
<path d="M184,128v64c0,4.418,3.582,8,8,8s8-3.582,8-8v-64c0-4.418-3.582-8-8-8S184,123.582,184,128z"/>
<path d="M240,0C107.452,0,0,107.452,0,240s107.452,240,240,240s240-107.452,240-240C479.85,107.514,372.486,0.15,240,0z M240,464
	C116.288,464,16,363.712,16,240S116.288,16,240,16s224,100.288,224,224C463.859,363.653,363.653,463.859,240,464z"/>
<path d="M256.952,383.016c-11.263,1.308-22.641,1.308-33.904,0c-4.39-0.515-8.365,2.626-8.88,7.016
	c-0.515,4.39,2.626,8.365,7.016,8.88c12.491,1.459,25.109,1.459,37.6,0c4.397-0.429,7.614-4.342,7.185-8.74
	c-0.429-4.397-4.342-7.614-8.74-7.185c-0.103,0.01-0.206,0.022-0.309,0.036L256.952,383.016z"/>
<path d="M351.096,135.952c-3.377,2.848-3.807,7.894-0.96,11.272c48.235,57.26,44.545,141.929-8.488,194.776
	c-3.13,3.119-3.139,8.186-0.02,11.316c3.119,3.13,8.186,3.139,11.316,0.02c58.937-58.713,63.047-152.795,9.456-216.424
	c-2.839-3.385-7.885-3.828-11.27-0.988C351.118,135.933,351.107,135.943,351.096,135.952z"/>
<path d="M186.352,105.744c0.965-0.002,1.922-0.178,2.824-0.52c27.118-10.141,56.646-11.952,84.8-5.2
	c4.295,1.038,8.618-1.601,9.656-5.896s-1.601-8.618-5.896-9.656c-31.265-7.493-64.055-5.479-94.168,5.784
	c-4.136,1.555-6.227,6.168-4.672,10.304c1.174,3.122,4.161,5.187,7.496,5.184H186.352z"/>
<path d="M96,240c-0.079-30.446,9.565-60.122,27.528-84.704c2.655-3.532,1.944-8.547-1.588-11.202
	c-3.532-2.655-8.547-1.944-11.202,1.588c-0.047,0.063-0.093,0.126-0.138,0.19c-46.253,63.588-39.447,151.359,16.056,207.056
	c3.128,3.13,8.202,3.132,11.332,0.004s3.132-8.202,0.004-11.332l0,0C111.023,314.677,95.908,278.108,96,240L96,240z"/>
<g>
</g>
<g>
</g>
<g>
</g>
<g>
</g>
<g>
</g>
<g>
</g>
<g>
</g>
<g>
</g>
<g>
</g>
<g>
</g>
<g>
</g>
<g>
</g>
<g>
</g>
<g>
</g>
<g>
</g>
</svg>

<?xml version="1.0" encoding="UTF-8" standalone="no"?>
<!DOCTYPE svg PUBLIC "-//W3C//DTD SVG 1.1//EN" "http://www.w3.org/Graphics/SVG/1.1/DTD/svg11.dtd">
<svg width="100%" height="100%" viewBox="0 0 480 480" version="1.1" xmlns="http://www.w3.org/2000/svg" xmlns:xlink="http://www.w3.org/1999/xlink" xml:space="preserve" xmlns:serif="http://www.serif.com/" style="fill-rule:evenodd;clip-rule:evenodd;stroke-linejoin:round;stroke-miterlimit:2;">
    <circle cx="240" cy="240" r="232" style="fill:white;"/>
    <circle cx="240" cy="240" r="152" style="fill:white;"/>
    <path d="M342.552,205.776C345.133,191.105 344.226,176.032 339.904,161.776L334.768,144.872C328.244,125.67 307.389,115.393 288.187,121.917C277.385,125.587 268.902,134.07 265.232,144.872L260.096,161.776C255.774,176.032 254.867,191.105 257.448,205.776C259.802,218.128 267.644,228.74 278.76,234.616L273.008,363.2C272.238,370.377 274.566,377.542 279.408,382.896C289.821,394.286 307.497,395.078 318.887,384.665C319.503,384.102 320.093,383.512 320.656,382.896C325.39,377.694 327.714,370.739 327.056,363.736L321.272,234.6C332.373,228.721 340.202,218.116 342.552,205.776ZM326.792,202.992C325.06,211.866 318.736,219.147 310.192,222.104C306.949,223.323 304.86,226.491 305.016,229.952L311.096,365C311.376,367.649 310.502,370.29 308.696,372.248C303.879,377.017 296.121,377.017 291.304,372.248C289.408,370.132 288.547,367.284 288.952,364.472L294.984,229.952C295.14,226.491 293.051,223.323 289.808,222.104C281.264,219.147 274.94,211.866 273.208,202.992C271.068,190.812 271.822,178.299 275.408,166.464L280.544,149.552C284.518,138.807 296.45,133.318 307.196,137.292C312.877,139.393 317.355,143.872 319.456,149.552L324.592,166.464C328.174,178.3 328.928,190.812 326.792,202.992Z" style="fill:rgb(255,33,77);fill-rule:nonzero;"/>
    <path d="M221.656,205.656C223.156,204.156 224,202.122 224,200L224,128C224,123.582 220.418,120 216,120C211.582,120 208,123.582 208,128L208,196.688L186.344,218.344C184.742,219.941 183.89,222.141 184,224.4L191,364.4C191.167,367.419 190.071,370.372 187.976,372.552C183.597,376.97 176.465,377.002 172.046,372.622C172.022,372.599 171.999,372.575 171.976,372.552C169.881,370.372 168.785,367.419 168.952,364.4L176,224.4C176.112,222.142 175.263,219.942 173.664,218.344L152,196.688L152,128C152,123.582 148.418,120 144,120C139.582,120 136,123.582 136,128L136,200C136,202.122 136.844,204.156 138.344,205.656L159.832,227.152L153.008,363.624C152.282,378.531 163.778,391.205 178.685,391.931C193.592,392.657 206.266,381.161 206.992,366.254C207.035,365.378 207.035,364.501 206.992,363.625L200.168,227.153L221.656,205.656Z" style="fill:rgb(255,33,77);fill-rule:nonzero;"/>
    <path d="M168,200C172.418,200 176,196.418 176,192L176,128C176,123.582 172.418,120 168,120C163.582,120 160,123.582 160,128L160,192C160,196.418 163.582,200 168,200Z" style="fill:rgb(255,33,77);fill-rule:nonzero;"/>
    <path d="M184,128L184,192C184,196.418 187.582,200 192,200C196.418,200 200,196.418 200,192L200,128C200,123.582 196.418,120 192,120C187.582,120 184,123.582 184,128Z" style="fill:rgb(255,33,77);fill-rule:nonzero;"/>
    <path d="M240,0C107.452,0 0,107.452 0,240C0,372.548 107.452,480 240,480C372.548,480 480,372.548 480,240C479.85,107.514 372.486,0.15 240,0ZM240,464C116.288,464 16,363.712 16,240C16,116.288 116.288,16 240,16C363.712,16 464,116.288 464,240C463.859,363.653 363.653,463.859 240,464Z" style="fill:rgb(255,33,77);fill-rule:nonzero;"/>
    <path d="M256.952,383.016C245.689,384.324 234.311,384.324 223.048,383.016C218.658,382.501 214.683,385.642 214.168,390.032C213.653,394.422 216.794,398.397 221.184,398.912C233.675,400.371 246.293,400.371 258.784,398.912C263.181,398.483 266.398,394.57 265.969,390.172C265.54,385.775 261.627,382.558 257.229,382.987C257.126,382.997 257.023,383.009 256.92,383.023L256.952,383.016Z" style="fill:rgb(255,33,77);fill-rule:nonzero;"/>
    <path d="M351.096,135.952C347.719,138.8 347.289,143.846 350.136,147.224C398.371,204.484 394.681,289.153 341.648,342C338.518,345.119 338.509,350.186 341.628,353.316C344.747,356.446 349.814,356.455 352.944,353.336C411.881,294.623 415.991,200.541 362.4,136.912C359.561,133.527 354.515,133.084 351.13,135.924C351.118,135.933 351.107,135.943 351.096,135.952Z" style="fill:rgb(255,33,77);fill-rule:nonzero;"/>
    <path d="M186.352,105.744C187.317,105.742 188.274,105.566 189.176,105.224C216.294,95.083 245.822,93.272 273.976,100.024C278.271,101.062 282.594,98.423 283.632,94.128C284.67,89.833 282.031,85.51 277.736,84.472C246.471,76.979 213.681,78.993 183.568,90.256C179.432,91.811 177.341,96.424 178.896,100.56C180.07,103.682 183.057,105.747 186.392,105.744L186.352,105.744Z" style="fill:rgb(255,33,77);fill-rule:nonzero;"/>
    <path d="M96,240C95.921,209.554 105.565,179.878 123.528,155.296C126.183,151.764 125.472,146.749 121.94,144.094C118.408,141.439 113.393,142.15 110.738,145.682C110.691,145.745 110.645,145.808 110.6,145.872C64.347,209.46 71.153,297.231 126.656,352.928C129.784,356.058 134.858,356.06 137.988,352.932C141.118,349.804 141.12,344.73 137.992,341.6C111.023,314.677 95.908,278.108 96,240Z" style="fill:rgb(255,33,77);fill-rule:nonzero;"/>
</svg>
